**kern	**text	**kern	**text	**kern	**text	**kern	**text	**kern	**text
*staff5	*staff5	*staff4	*staff4	*staff3	*staff3	*staff2	*staff2	*staff1	*staff1
*I"Basso	*	*I"Tenore	*	*I"Alto	*	*I"Soprano II	*	*I"Soprano I	*
=1-	=1-	=1-	=1-	=1-	=1-	=1-	=1-	=1-	=1-
*clefF4	*	*clefGv2	*	*clefGv2	*	*clefG2	*	*clefG2	*
*k[f#]	*	*k[f#]	*	*k[f#]	*	*k[f#]	*	*k[f#]	*
*met(c|)	*	*met(c|)	*	*met(c|)	*	*met(c|)	*	*met(c|)	*
*M2/2	*	*M2/2	*	*M2/2	*	*M2/2	*	*M2/2	*
[1E	Ec-	[1G	Ec-	[1B	Ec-	1r	.	[1e	Ec-
=2	=2	=2	=2	=2	=2	=2	=2	=2	=2
1E]	.	1G]	.	1B]	.	1r	.	1e]	.
=3	=3	=3	=3	=3	=3	=3	=3	=3	=3
[1BB	-ce	[1F#	-ce	[1B	-ce	1r	.	[1d#	-ce
=4	=4	=4	=4	=4	=4	=4	=4	=4	=4
1BB]	.	1F#]	.	1B]	.	1r	.	1d#]	.
=5	=5	=5	=5	=5	=5	=5	=5	=5	=5
2r	.	2r	.	2r	.	1r	.	2r	.
[2E\	quo-	[2G/	quo-	[2B\	quo-	.	.	[2e/	quo-
=6	=6	=6	=6	=6	=6	=6	=6	=6	=6
2E\]	.	2G/]	.	2B\]	.	1r	.	2e/]	.
2C/	-mo-	2G/	-mo-	2c\	-mo-	.	.	2e/	-mo-
=7	=7	=7	=7	=7	=7	=7	=7	=7	=7
1C	-do	1G	-do	1c	-do	1r	.	1e	-do
=8	=8	=8	=8	=8	=8	=8	=8	=8	=8
[1Fni	mo-	[1A	mo-	[1c	mo-	1r	.	[1fn	mo-
=9	=9	=9	=9	=9	=9	=9	=9	=9	=9
2F\]	.	2A/]	.	2c\]	.	1r	.	2f/]	.
2C/	-ri-	2G/	-ri-	2c\	-ri-	.	.	2e/	-ri-
=10	=10	=10	=10	=10	=10	=10	=10	=10	=10
1C	-tur	1G	-tur	1c	-tur	1r	.	1e	-tur
=11	=11	=11	=11	=11	=11	=11	=11	=11	=11
1D	ju-	1Fni	ju-	1A	ju-	1r	.	1d	ju-
=12	=12	=12	=12	=12	=12	=12	=12	=12	=12
!!linebreak:original
1AA	-stus,	1E	-stus,	1A	-stus,	1r	.	1c#	-stus,
=13	=13	=13	=13	=13	=13	=13	=13	=13	=13
2r	.	2r	.	2r	.	1r	.	2r	.
2AA/	et	2A/	et	2c#\	et	.	.	2e/	et
=14	=14	=14	=14	=14	=14	=14	=14	=14	=14
1D	ne-	1A	ne-	1d	ne-	1r	.	1fni	ne-
=15	=15	=15	=15	=15	=15	=15	=15	=15	=15
2GG/	-mo	2B\	-mo	2d\	-mo	1r	.	2g/	-mo
[2C/	per-	[2c\	per-	[2e\	per-	.	.	[2g/	per-
=16	=16	=16	=16	=16	=16	=16	=16	=16	=16
4C/]	.	4c\]	.	4e\]	.	1r	.	4g/]	.
4C/	-ci-	4c\	-ci-	4e\	-ci-	.	.	4g/	-ci-
2C/	-pit	2c\	-pit	2e\	-pit	.	.	2g/	-pit
=17	=17	=17	=17	=17	=17	=17	=17	=17	=17
1D	cor-	1A	cor-	1d	cor-	1r	.	1fn	cor-
=18	=18	=18	=18	=18	=18	=18	=18	=18	=18
1E	-de:	1G#	-de:	1B	-de:	1r	.	1e	-de:
=19	=19	=19	=19	=19	=19	=19	=19	=19	=19
2r	.	2r	.	2r	.	1r	.	2r	.
[2D\	vi-	[2A/	vi-	[2d\	vi-	.	.	[2f#/	vi-
=20	=20	=20	=20	=20	=20	=20	=20	=20	=20
2D\]	.	2A/]	.	2d\]	.	1r	.	2f#/]	.
2D\	-ri	2A/	-ri	2d\	-ri	.	.	2f#/	-ri
=21	=21	=21	=21	=21	=21	=21	=21	=21	=21
1D	ju-	1A	ju-	1d	ju-	1r	.	1f#	ju-
=22	=22	=22	=22	=22	=22	=22	=22	=22	=22
2BB/	-sti	2B\	-sti	2d\	-sti	1r	.	2f#/	-sti
2E\	tol-	2G/	tol-	2B\	tol-	.	.	2e/	tol-
=23	=23	=23	=23	=23	=23	=23	=23	=23	=23
!!pagebreak:original
1D	-lun-	1A	-lun-	1d	-lun-	1r	.	1f#	-lun-
=24	=24	=24	=24	=24	=24	=24	=24	=24	=24
1GG	-tur,	1B	-tur,	1d	-tur,	1r	.	1g	-tur,
=25	=25	=25	=25	=25	=25	=25	=25	=25	=25
2r	.	2r	.	2r	.	1r	.	2r	.
2C/	et	2G/	et	2c\	et	.	.	2e/	et
=26	=26	=26	=26	=26	=26	=26	=26	=26	=26
1E	ne-	1G	ne-	1B	ne-	1r	.	1e	ne-
=27	=27	=27	=27	=27	=27	=27	=27	=27	=27
2D\	-mo	2A/	-mo	2d\	-mo	1r	.	2f#/	-mo
2GG/	con-	2B\	con-	2d\	con-	.	.	2g/	con-
=28	=28	=28	=28	=28	=28	=28	=28	=28	=28
2.AA/	-si-	2.A/	-si-	2.c\	-si-	1r	.	2.e/	-si-
4AA/	-de-	4A/	-de-	4c\	-de-	.	.	4e/	-de-
=29	=29	=29	=29	=29	=29	=29	=29	=29	=29
1BB	-rat:	1F#	-rat:	1B	-rat:	1r	.	1d#	-rat:
=30	=30	=30	=30	=30	=30	=30	=30	=30	=30
2r	.	2r	.	2r	.	1r	.	2r	.
2E\	a	2G/	a	2B\	a	.	.	2e/	a
=31	=31	=31	=31	=31	=31	=31	=31	=31	=31
2.E\	fa-	2.G/	fa-	2.B\	fa-	1r	.	2.e/	fa-
4E\	-ci-	4G/	-ci-	4B\	-ci-	.	.	4e/	-ci-
=32	=32	=32	=32	=32	=32	=32	=32	=32	=32
2E\	-e	2G/	-e	2B\	-e	1r	.	2e/	-e
2A\	i-	2A/	i-	2c\	i-	.	.	2e/	i-
=33	=33	=33	=33	=33	=33	=33	=33	=33	=33
2G\	-ni-	2B\	-ni-	2d\	-ni-	1r	.	2g/	-ni-
2E\	-qui-	2c\	-qui-	2e\	-qui-	.	.	2g/	-qui-
=34	=34	=34	=34	=34	=34	=34	=34	=34	=34
!!linebreak:original
1G	-ta-	1B	-ta-	1d	-ta-	1r	.	1g	-ta-
=35	=35	=35	=35	=35	=35	=35	=35	=35	=35
2C/	-tis	2c\	-tis	2e\	-tis	1r	.	2g/	-tis
2C/	sub-	2G/	sub-	2c\	sub-	.	.	2e/	sub-
=36	=36	=36	=36	=36	=36	=36	=36	=36	=36
1E	-la-	1G	-la-	1B	-la-	1r	.	1g	-la-
=37	=37	=37	=37	=37	=37	=37	=37	=37	=37
1D	-tus	1A	-tus	1d	-tus	1r	.	1f#	-tus
=38	=38	=38	=38	=38	=38	=38	=38	=38	=38
1AA	est	1A	est	1c	est	1r	.	1e	est
=39	=39	=39	=39	=39	=39	=39	=39	=39	=39
[1BB	ju-	[1F#	ju-	[1B	ju-	1r	.	2d#/	ju-
.	.	.	.	.	.	.	.	[2e/	.
=40	=40	=40	=40	=40	=40	=40	=40	=40	=40
1BB]	.	1F#]	.	1B]	.	1r	.	2e/]	.
.	.	.	.	.	.	.	.	2d#/	.
=41	=41	=41	=41	=41	=41	=41	=41	=41	=41
[1E	-stus:	[1G#	-stus:	[1B	-stus:	1r	.	[1e	-stus:
=42	=42	=42	=42	=42	=42	=42	=42	=42	=42
1E]	.	1G#]	.	1B]	.	1r	.	1e]	.
=43||	=43||	=43||	=43||	=43||	=43||	=43||	=43||	=43||	=43||
2r	.	2r	.	2r	.	1r	.	2r	.
2E\	Et	2G/	Et	2B\	Et	.	.	2e/	Et
=44	=44	=44	=44	=44	=44	=44	=44	=44	=44
1E	e-	1G	e-	1B	e-	1r	.	1e	e-
=45	=45	=45	=45	=45	=45	=45	=45	=45	=45
2BB/	-rit	2F#/	-rit	2d\	-rit	1r	.	2f#/	-rit
2E\	in	2E/	in	2B\	in	.	.	2g/	in
=46	=46	=46	=46	=46	=46	=46	=46	=46	=46
!!linebreak:original
1C	pa-	1G	pa-	1c	pa-	1r	.	1e	pa-
=47	=47	=47	=47	=47	=47	=47	=47	=47	=47
1GG	-ce	1G	-ce	1B	-ce	1r	.	1d	-ce
=48	=48	=48	=48	=48	=48	=48	=48	=48	=48
2GG/	me-	2G/	me-	2B\	me-	1r	.	2d/	me-
[2C/	-mo-	[2G/	-mo-	[2c\	-mo-	.	.	[2e/	-mo-
=49	=49	=49	=49	=49	=49	=49	=49	=49	=49
2C/]	.	2G/]	.	2c\]	.	1r	.	2e/]	.
2AA/	-ri-	2A/	-ri-	2c\	-ri-	.	.	2e/	-ri-
=50	=50	=50	=50	=50	=50	=50	=50	=50	=50
1AA	-a	1A	-a	1c	-a	1r	.	1e	-a
=51	=51	=51	=51	=51	=51	=51	=51	=51	=51
[1E	e-	[1G	e-	[1B	e-	1r	.	[1e	e-
=52	=52	=52	=52	=52	=52	=52	=52	=52	=52
1E]	.	1G]	.	1B]	.	1r	.	1e]	.
=53	=53	=53	=53	=53	=53	=53	=53	=53	=53
[1BB	-jus.	[1F#	-jus.	[1B	-jus.	1r	.	[1d#	-jus.
=54	=54	=54	=54	=54	=54	=54	=54	=54	=54
1BB]	.	1F#]	.	1B]	.	1r	.	1d#]	.
=55||	=55||	=55||	=55||	=55||	=55||	=55||	=55||	=55||	=55||
1r	.	1r	.	[1e	Tam-	1r	.	1r	.
=56	=56	=56	=56	=56	=56	=56	=56	=56	=56
1r	.	1r	.	2e\]	.	1b	Tam-	1r	.
.	.	.	.	2B\	-quam	.	.	.	.
=57	=57	=57	=57	=57	=57	=57	=57	=57	=57
1r	.	1r	.	1c	a-	2e/	-quam	1r	.
.	.	.	.	.	.	[2g/	a-	.	.
=58	=58	=58	=58	=58	=58	=58	=58	=58	=58
!!pagebreak:original
1r	.	1r	.	1B	-gnus	2g/]	.	[1b	Tam-
.	.	.	.	.	.	2f#/	-gnus	.	.
=59	=59	=59	=59	=59	=59	=59	=59	=59	=59
1r	.	1r	.	2e\	co-	2g/	co-	2b\]	.
.	.	.	.	2c\	-ram	2a/	-ram	2e/	-quam
=60	=60	=60	=60	=60	=60	=60	=60	=60	=60
1r	.	1r	.	2B\	ton-	2b\	ton-	1g	a-
.	.	.	.	[2e\	-den-	2cc\	-den-	.	.
=61	=61	=61	=61	=61	=61	=61	=61	=61	=61
1r	.	1r	.	2e\]	.	2a/	-te	1f#	-gnus
.	.	.	.	2d\	-te	[2b\	se	.	.
=62	=62	=62	=62	=62	=62	=62	=62	=62	=62
1r	.	1r	.	1c	se	2b\]	.	1r	.
.	.	.	.	.	.	2a/	ob-	.	.
=63	=63	=63	=63	=63	=63	=63	=63	=63	=63
1r	.	1r	.	2B\	ob-	1g	-mu-	1r	.
.	.	.	.	[2e\	-mu-	.	.	.	.
=64	=64	=64	=64	=64	=64	=64	=64	=64	=64
1r	.	1r	.	2e\]	.	1f#	-tu-	1r	.
.	.	.	.	2d#\	-tu-	.	.	.	.
=65	=65	=65	=65	=65	=65	=65	=65	=65	=65
1r	.	1r	.	1e	-it,	1e	-it,	1g	co-
=66	=66	=66	=66	=66	=66	=66	=66	=66	=66
1r	.	1r	.	1r	.	2r	.	2a/	-ram
.	.	.	.	.	.	2d/	co-	2b\	ton-
=67	=67	=67	=67	=67	=67	=67	=67	=67	=67
1r	.	1r	.	1r	.	2e/	-ram	2cc\	-den-
.	.	.	.	.	.	2f#/	ton-	2a/	-te
=68	=68	=68	=68	=68	=68	=68	=68	=68	=68
!!linebreak:original
1r	.	1r	.	1r	.	2g/	-den-	[1b	se
.	.	.	.	.	.	2e/	-te	.	.
=69	=69	=69	=69	=69	=69	=69	=69	=69	=69
1r	.	1r	.	1r	.	1g	se	1b]	.
=70	=70	=70	=70	=70	=70	=70	=70	=70	=70
1r	.	1r	.	1r	.	2f#/	ob-	2a/	ob-
.	.	.	.	.	.	[2e/	-mu-	[2g/	-mu-
=71	=71	=71	=71	=71	=71	=71	=71	=71	=71
1r	.	1r	.	1r	.	2e/]	.	2g/]	.
.	.	.	.	.	.	2d#/	-tu-	2f#/	-tu-
=72	=72	=72	=72	=72	=72	=72	=72	=72	=72
1r	.	1r	.	1r	.	1e	-it,	1e	-it,
=73	=73	=73	=73	=73	=73	=73	=73	=73	=73
1r	.	1r	.	2r	.	2r	.	2r	.
.	.	.	.	[2e\	et	2b\	et	2g/	et
=74	=74	=74	=74	=74	=74	=74	=74	=74	=74
1r	.	1r	.	2e\]	.	2a/	non	1f#	non
.	.	.	.	2d\	non	2b\	a-	.	.
=75	=75	=75	=75	=75	=75	=75	=75	=75	=75
1r	.	1r	.	2e\	a-	[1cc	-pe-	2g/	a-
.	.	.	.	[2fn\	-pe-	.	.	[2a/	-pe-
=76	=76	=76	=76	=76	=76	=76	=76	=76	=76
1r	.	1r	.	2f\]	.	1cc]	.	2a/]	.
.	.	.	.	2e\	-ru-	.	.	2g/	-ru-
=77	=77	=77	=77	=77	=77	=77	=77	=77	=77
1r	.	1r	.	1e	-it	2b\	-ru-	1g	-it
.	.	.	.	.	.	2b\	-it	.	.
=78	=78	=78	=78	=78	=78	=78	=78	=78	=78
1r	.	1r	.	1d	os	2b\	os	1f#	os
.	.	.	.	.	.	[2a/	su-	.	.
=79	=79	=79	=79	=79	=79	=79	=79	=79	=79
!!linebreak:original
1r	.	1r	.	1c	su-	2a/]	.	[1e	su-
.	.	.	.	.	.	[2g/	.	.	.
=80	=80	=80	=80	=80	=80	=80	=80	=80	=80
1r	.	1r	.	1B	-um:	2g/]	.	2e/]	.
.	.	.	.	.	.	2f#/	-um:	2d#/	-um:
=81	=81	=81	=81	=81	=81	=81	=81	=81	=81
1r	.	1r	.	1r	.	1r	.	2r	.
.	.	.	.	.	.	.	.	[2e/	de
=82	=82	=82	=82	=82	=82	=82	=82	=82	=82
1r	.	1r	.	1A	de	1r	.	2e/]	.
.	.	.	.	.	.	.	.	2f#/	an-
=83	=83	=83	=83	=83	=83	=83	=83	=83	=83
1r	.	1r	.	2B\	an-	2r	.	1g	-gu-
.	.	.	.	[2c\	-gu-	[2e/	de	.	.
=84	=84	=84	=84	=84	=84	=84	=84	=84	=84
1r	.	1r	.	2c\]	.	2e/]	.	1a	-sti-
.	.	.	.	2d\	-sti-	[2f#/	an-	.	.
=85	=85	=85	=85	=85	=85	=85	=85	=85	=85
1r	.	1r	.	2d\	-a,	2f#/]	.	1b	-a,
.	.	.	.	2e\	.	[2g/	-gu-	.	.
=86	=86	=86	=86	=86	=86	=86	=86	=86	=86
1r	.	1r	.	1r	.	2g/]	.	2e/	et
.	.	.	.	.	.	2a/	-sti-	[2f#/	de-
=87	=87	=87	=87	=87	=87	=87	=87	=87	=87
1r	.	1r	.	1B	et	1b	-a,	2f#/]	.
.	.	.	.	.	.	.	.	2g#/	-ju-
=88	=88	=88	=88	=88	=88	=88	=88	=88	=88
1r	.	1r	.	2c\	de-	2e/	et	2.a/	-di-
.	.	.	.	[2d\	-ju-	[2f#/	de-	.	.
.	.	.	.	.	.	.	.	4a/	-ci-
=89	=89	=89	=89	=89	=89	=89	=89	=89	=89
1r	.	1r	.	2d\]	.	2f#/]	.	1b	-o
.	.	.	.	[2e\	-di-	2g/	-ju-	.	.
=90	=90	=90	=90	=90	=90	=90	=90	=90	=90
!!pagebreak:original
1r	.	1r	.	2e\]	.	2g/	-di-	2r	.
.	.	.	.	2c\	-ci-	2a/	-ci-	2e/	sub-
=91	=91	=91	=91	=91	=91	=91	=91	=91	=91
1r	.	1r	.	2B\	-o	1b	-o	1g	-la-
.	.	.	.	[2e\	sub-	.	.	.	.
=92	=92	=92	=92	=92	=92	=92	=92	=92	=92
1r	.	1r	.	2e\]	.	2r	.	1f#	-tus
.	.	.	.	[2d\	-la-	[2b\	sub-	.	.
=93	=93	=93	=93	=93	=93	=93	=93	=93	=93
1r	.	1r	.	2d\]	.	2b\]	.	1e	est
.	.	.	.	2c\	-tus	[2a/	-la-	.	.
=94	=94	=94	=94	=94	=94	=94	=94	=94	=94
1r	.	1r	.	2B\	est	2a/]	.	[1b	sub-
.	.	.	.	[2e\	sub-	2g/	-tus	.	.
=95	=95	=95	=95	=95	=95	=95	=95	=95	=95
1r	.	1r	.	2e\]	.	2f#/	est	1b]	.
.	.	.	.	[2d\	-la-	[2f#/	sub-	.	.
=96	=96	=96	=96	=96	=96	=96	=96	=96	=96
1r	.	1r	.	2d\]	.	2f#/]	.	2.a/	-la-
.	.	.	.	2c\	-tus	[2e/	-la-	.	.
.	.	.	.	.	.	.	.	4e/	.
=97	=97	=97	=97	=97	=97	=97	=97	=97	=97
1r	.	1r	.	[1B	est.	2e/]	.	2g/	.
.	.	.	.	.	.	2d#/	-tus	2f#/	-tus
=98	=98	=98	=98	=98	=98	=98	=98	=98	=98
1r	.	1r	.	1B]	.	[1d#	est	[1f#	est
=99	=99	=99	=99	=99	=99	=99	=99	=99	=99
1r	.	1r	.	1r	.	1d#]	.	1f#]	.
=100||	=100||	=100||	=100||	=100||	=100||	=100||	=100||	=100||	=100||
!!linebreak:original
2r	.	2r	.	2r	.	2r	.	2r	.
2E\	Et	2G/	Et	2B\	Et	2e/	Et	2e/	Et
=101	=101	=101	=101	=101	=101	=101	=101	=101	=101
1E	e-	1G	e-	1B	e-	1e	e-	1e	e-
=102	=102	=102	=102	=102	=102	=102	=102	=102	=102
2BB/	-rit	2F#/	-rit	2d\	-rit	2f#/	-rit	2f#/	-rit
2E\	in	2E/	in	2B\	in	2g/	in	2g/	in
=103	=103	=103	=103	=103	=103	=103	=103	=103	=103
1C	pa-	1G	pa-	1c	pa-	1e	pa-	1e	pa-
=104	=104	=104	=104	=104	=104	=104	=104	=104	=104
1GG	-ce	1G	-ce	1B	-ce	1d	-ce	1d	-ce
=105	=105	=105	=105	=105	=105	=105	=105	=105	=105
2GG/	me-	2G/	me-	2B\	me-	2d/	me-	2d/	me-
[2C/	-mo-	[2G/	-mo-	[2c\	-mo-	[2e/	-mo-	[2e/	-mo-
=106	=106	=106	=106	=106	=106	=106	=106	=106	=106
2C/]	.	2G/]	.	2c\]	.	2e/]	.	2e/]	.
2AA/	-ri-	2A/	-ri-	2c\	-ri-	2e/	-ri-	2e/	-ri-
=107	=107	=107	=107	=107	=107	=107	=107	=107	=107
1AA	-a	1A	-a	1c	-a	1e	-a	1e	-a
=108	=108	=108	=108	=108	=108	=108	=108	=108	=108
[1E	e-	[1G	e-	[1B	e-	[1e	e-	[1e	e-
=109	=109	=109	=109	=109	=109	=109	=109	=109	=109
1E]	.	1G]	.	1B]	.	1e]	.	1e]	.
=110	=110	=110	=110	=110	=110	=110	=110	=110	=110
[1BB	-jus.	[1F#	-jus.	[1B	-jus.	[1d#	-jus.	[1d#	-jus.
=111	=111	=111	=111	=111	=111	=111	=111	=111	=111
1BB]	.	1F#]	.	1B]	.	1d#]	.	1d#]	.
==	==	==	==	==	==	==	==	==	==
*-	*-	*-	*-	*-	*-	*-	*-	*-	*-
!!!OTL: Ecce quomodo moritur justus 
!!!COM: Ingegneri, Marc' Antonio
!!!CDT: ca. 1535/36-1592-07-01
!!!TXO: Latin
!!!ODT: 
!!!ARL: Klasztor OO. Paulinów na Jasnej Górze
!!!voices:	5
!!title: @{OTL}, @{GTL}, ed. @{ENC}
!!!pag:
!!!GTL: Responsoria in Hebdomada majore
!!!EFL: 
!!!YEM: Creative Commons CC/BY/NC/SA 4.0
!!!ENC: Marcin Konik
!!!END: 2015-0m-dd
!!!EED: Marcin Konik
!!!EEV: 
!!!ONB: Encoded in vim by Marcin Konik
!!!CharacterEncoding: utf-8
!!!RDF**kern: l=long note in original notation
!!!RDF**kern: i=editorial accidental
!!muse2ps: z14jc180F
